!!!OTL: ES WAR EINMAL EIN MAEDCHEN
!!!ARE: Europa, Mitteleuropa, Deutschland, Kreis Wetzlar, Burgsolms
!!!SCT: E0211C
!!!YEM: Copyright 1995, estate of Helmut Schaffrath.
**kern
*ICvox
*Ivox
*M4/4
*k[f#c#]
*D:
{8d
8f#
=1
4.a
8b
4a
4g
=2
4.f#
8e
4d}
{4dd
=3
4cc#
4cc#
4b
4b
=4
2a
4r}
{4a
=5
4dd
4dd
4cc#
4cc#
=6
4.b
16a
16g
4f#}
{8a
8g
=7
4f#
4f#
4e
4e
=8
2d
4r}
{4a
=9
4dd
4dd
4cc#
4cc#
=10
4.b
16a
16g
4f#}
{8a
8g
=11
4f#
4f#
4e
4e
=12
2d
4r}
==
!!!AGN: erzaehlendes Volks - Lied, Mahn -, Moral - Lied, Strafe; Untreue
!!!ONB: ESAC (Essen Associative Code) Database: ERK1
!!!AMT: simple quadruple
!!!AIN: vox
!!!EED: Helmut Schaffrath
!!!EEV: 1.0
*-
